X: 94
T: Pollonesse #94
M: 3/4
L: 1/16
R: Pollonesse
K: Eb
Q: 110
B,EDE GEDE BEDE|cEDE eEDE GEDE|B,EDE GEDE BEDE|cEDE eEDE GEDE|
(3G,2E2B2 (3B2E2G,2 (3G,2E2B2| (3A,2E2c2 (3c2E2A,2 (3A,2E2c2|e2ed c2cB AGFE| D2EF F4 E4:|
|:(3D2B2f2 (3f2B2D2 (3D2B2f2|(3E2B2g2 (3g2B2E2 (3E2B2g2|b2ba g2gf edcB|B2=AB cBAG F2E2|
=ABAG dBAB fBAB|gB=AB bBAB dBAB|=ABAG dBAB fBAB|gB=AB bBAB dBAB|
b2ba g2gf edcB|=ABcA B4 B,4|B4 GEGB e2d2|c4 C2c2 C2c2|B2=ABe2B2 G2E2|
[FB,]2[FB,][FB,] [FB,]2[FB,][FB,] [FB,]4|E2EG F2F=A G2FE|A2FD F2GA G2FE|e2ed c2cB AGFE|B,EDF E8:|

